X:31
T:Wood Lark.
T:John Malchair's Third Collection of Tunes
%%VWML:Malchair-3619-p31
F:https://www.vwml.org/record/Malchair/3619/p31
F:www.vwml.org/topics/historic-dance-and-tune-books/Malchair
Z:Eric Conrad Jan 2020
M:C|
L:1/8
K:F
fg | agfa gfeg | f2c2 c2f2 | g2a2 b2a2 | gfed c2fg |
agfa gfeg | f2c2 (fa)c2 | B2A2 G3F | F6 ||
cB | AFAc AFAc | BGBd BGBd | Acde fgag | e4 c2gf |
fafc fafc | egec egec | faga (ba)g2 | f6 |]
W:
T:Golden Age.
T:John Malchair's Third Collection of Tunes
F:https://www.vwml.org/record/Malchair/3619/p31
F:www.vwml.org/topics/historic-dance-and-tune-books/Malchair
M:2/4
L:1/8 
K:Am
|: AB | c2e2 A2a2 | ^g2b2 e2dc | B2c2 d2eB | c2 A4 cB |
c2e2 A2c2 | B2d2 G2g2 | (ag)(fe) (de)(fg) | e2 c4 |]
cd | e2g2 c2e2 | g2c2 B2e2 | A2a^g a2ba | =g2 e4 ef |
g2B2 c2e2 | f2A2 ^G2B2 | e2dc B2cd | c2 A4 |]
W:
T:Winchester Wedding, or the King's Jigg.
T:John Malchair's Third Collection of Tunes
F:https://www.vwml.org/record/Malchair/3619/p31
F:www.vwml.org/topics/historic-dance-and-tune-books/Malchair
% Z:Eric Conrad Jan 2020
M:C|
L:1/8
K:Bb
P:A
B,2 | (DF3) G2F2 | D2B,2 (DF3) | B3G c3B, | (DF3) G3F | \
 D2F2 GAB2 | B3A B2 :|
P:B
|: g2 | fgd2 f3B | c2B2 cde2 | G3c A3F | B>GE2 G>BG2 | \
 c>AF2 (de3) | c3B B2 :|
W:See an attempt to restore the time of this tune at p 129.


